Papirus-nordic/32x32/places/folder-red-linux.svg

<svg xmlns="http://www.w3.org/2000/svg" width="32" height="32" version="1"><rect width="25" height="16" x="3" y="12" rx="1.25" ry="1.25" opacity=".2"/><path d="M3 21.75c0 .692.558 1.25 1.25 1.25h22.5c.692 0 1.25-.558 1.25-1.25V8.25C28 7.558 27.442 7 26.75 7H14v-.75C14 5.558 13.443 5 12.75 5h-8.5C3.558 5 3 5.558 3 6.25" fill="#ae4f58"/><rect width="25" height="16" x="3" y="10" rx="1.25" ry="1.25" opacity=".2"/><rect width="21" height="10" x="5" y="9" rx="1.25" ry="1.25" fill="#e4e4e4"/><rect width="25" height="16" x="3" y="11" rx="1.25" ry="1.25" fill="#bf616a"/><path d="M4.25 5C3.558 5 3 5.558 3 6.25v1C3 6.558 3.558 6 4.25 6h8.5c.693 0 1.25.558 1.25 1.25V8h12.75c.692 0 1.25.557 1.25 1.25v-1C28 7.558 27.442 7 26.75 7H14v-.75C14 5.558 13.443 5 12.75 5h-8.5z" opacity=".1" fill="#fff"/><path d="M15.843 21.196c-.8.373-1.544.369-2.044.333-.596-.043-1.076-.207-1.286-.349a.285.285 0 0 0-.319.47c.339.229.938.4 1.564.445.106.008.223.013.348.013.545 0 1.237-.052 1.977-.397a.284.284 0 1 0-.24-.515zm3.158-.421c.027-2.467.281-7.13-4.443-6.754-4.665.376-3.428 5.303-3.497 6.953-.062.873-.352 1.94-.761 3.026h1.261c.129-.46.225-.915.266-1.349.076.053.157.104.244.153.141.083.262.194.391.311.3.274.64.584 1.306.623.044.002.089.004.133.004.673 0 1.133-.295 1.503-.531.177-.114.33-.212.474-.259a2.563 2.563 0 0 0 1.034-.598c.042-.041.081-.083.117-.126.149.545.353 1.159.579 1.772H20.3c-.646-.998-1.313-1.976-1.299-3.224zm-7.489-1.342c-.046-.806.339-1.483.861-1.513.521-.031.982.598 1.028 1.403.002.044.004.087.004.129a2.027 2.027 0 0 0-.448.172l-.002-.017v-.001c-.044-.457-.288-.802-.545-.771-.257.031-.429.427-.384.884v.001c.019.199.077.377.157.512-.02.016-.076.057-.141.104l-.179.131c-.194-.255-.327-.621-.351-1.034zm5.285 1.99c-.019.426-.576.827-1.09.987l-.003.001c-.214.069-.404.192-.606.321-.34.217-.69.441-1.197.441l-.101-.003c-.464-.027-.681-.225-.955-.475-.145-.132-.295-.269-.489-.382l-.004-.002c-.417-.236-.676-.529-.692-.784-.008-.126.048-.236.168-.326.26-.195.434-.322.549-.407.128-.093.167-.121.196-.149l.066-.064c.239-.232.638-.62 1.252-.62.375 0 .79.144 1.232.428.208.136.389.198.619.278.157.054.336.116.576.218l.004.002c.223.092.487.259.475.536zm-.123-.999a2.11 2.11 0 0 0-.135-.062 8.274 8.274 0 0 0-.532-.205c.079-.155.128-.349.133-.559.011-.512-.247-.927-.576-.928-.33 0-.605.414-.616.925l-.001.05a2.823 2.823 0 0 0-.597-.202l-.002-.058v-.001c-.019-.931.553-1.703 1.277-1.722.724-.02 1.326.719 1.345 1.651v.001c.009.421-.104.809-.297 1.11z" fill="#974a4d"/></svg>

<svg xmlns="http://www.w3.org/2000/svg" width="32" height="32" version="1">
 <rect style="opacity:0.2" width="25" height="16" x="3" y="12" rx="1.25" ry="1.25"/>
 <path style="fill:#ae4f58" d="M 3,21.75 C 3,22.442 3.5575,23 4.25,23 H 26.75 C 27.442,23 28,22.442 28,21.75 V 8.25 C 28,7.5575 27.442,7 26.75,7 H 14 V 6.25 C 14,5.5575 13.443,5 12.75,5 H 4.25 C 3.5575,5 3,5.5575 3,6.25"/>
 <rect style="opacity:0.2" width="25" height="16" x="3" y="10" rx="1.25" ry="1.25"/>
 <rect style="fill:#e4e4e4" width="21" height="10" x="5" y="9" rx="1.25" ry="1.25"/>
 <rect style="fill:#bf616a" width="25" height="16" x="3" y="11" rx="1.25" ry="1.25"/>
 <path style="opacity:0.1;fill:#ffffff" d="M 4.25 5 C 3.5575 5 3 5.5575 3 6.25 L 3 7.25 C 3 6.5575 3.5575 6 4.25 6 L 12.75 6 C 13.443 6 14 6.5575 14 7.25 L 14 8 L 26.75 8 C 27.442 8 28 8.5575 28 9.25 L 28 8.25 C 28 7.5575 27.442 7 26.75 7 L 14 7 L 14 6.25 C 14 5.5575 13.443 5 12.75 5 L 4.25 5 z"/>
 <path style="fill:#974a4d" d="M 15.843,21.196 C 15.043,21.569 14.299,21.565 13.799,21.529 13.203,21.486 12.723,21.322 12.513,21.18 12.383,21.092 12.206,21.126 12.118,21.256 12.03,21.386 12.064,21.562 12.194,21.65 12.533,21.879 13.132,22.05 13.758,22.095 13.864,22.103 13.981,22.108 14.106,22.108 14.651,22.108 15.343,22.056 16.083,21.711 16.225,21.645 16.287,21.476 16.221,21.334 16.155,21.192 15.986,21.13 15.843,21.196 Z M 19.001,20.775 C 19.028,18.308 19.282,13.645 14.558,14.021 9.8935,14.397 11.13,19.324 11.061,20.974 10.999,21.847 10.709,22.914 10.3,24 H 11.561 C 11.69,23.54 11.786,23.085 11.827,22.651 11.903,22.704 11.984,22.755 12.071,22.804 12.212,22.887 12.333,22.998 12.462,23.115 12.762,23.389 13.102,23.699 13.768,23.738 13.812,23.74 13.857,23.742 13.901,23.742 14.574,23.742 15.034,23.447 15.404,23.211 15.581,23.097 15.734,22.999 15.878,22.952 16.287,22.824 16.645,22.617 16.912,22.354 16.954,22.313 16.993,22.271 17.029,22.228 17.178,22.773 17.382,23.387 17.608,24 H 20.3 C 19.654,23.002 18.987,22.024 19.001,20.776 Z M 11.512,19.433 C 11.512,19.433 11.512,19.433 11.512,19.433 11.466,18.627 11.851,17.95 12.373,17.92 12.894,17.889 13.355,18.518 13.401,19.323 13.401,19.323 13.401,19.323 13.401,19.323 13.403,19.367 13.405,19.41 13.405,19.452 13.239,19.494 13.09,19.554 12.957,19.624 12.956,19.618 12.956,19.612 12.955,19.607 V 19.606 C 12.911,19.149 12.667,18.804 12.41,18.835 12.153,18.866 11.981,19.262 12.026,19.719 12.026,19.72 12.026,19.72 12.026,19.72 12.045,19.919 12.103,20.097 12.183,20.232 12.163,20.248 12.107,20.289 12.042,20.336 11.993,20.371 11.934,20.415 11.863,20.467 11.669,20.212 11.536,19.846 11.512,19.433 Z M 16.797,21.423 C 16.778,21.849 16.221,22.25 15.707,22.41 L 15.704,22.411 C 15.49,22.48 15.3,22.603 15.098,22.732 14.758,22.949 14.408,23.173 13.901,23.173 13.868,23.173 13.834,23.172 13.8,23.17 13.336,23.143 13.119,22.945 12.845,22.695 12.7,22.563 12.55,22.426 12.356,22.313 L 12.352,22.311 C 11.935,22.075 11.676,21.782 11.66,21.527 11.652,21.401 11.708,21.291 11.828,21.201 12.088,21.006 12.262,20.879 12.377,20.794 12.505,20.701 12.544,20.673 12.573,20.645 12.593,20.626 12.615,20.604 12.639,20.581 12.878,20.349 13.277,19.961 13.891,19.961 14.266,19.961 14.681,20.105 15.123,20.389 15.331,20.525 15.512,20.587 15.742,20.667 15.899,20.721 16.078,20.783 16.318,20.885 L 16.322,20.887 C 16.545,20.979 16.809,21.146 16.797,21.423 Z M 16.674,20.424 C 16.631,20.402 16.586,20.382 16.539,20.362 16.323,20.27 16.15,20.207 16.007,20.157 16.086,20.002 16.135,19.808 16.14,19.598 V 19.598 C 16.151,19.086 15.893,18.671 15.564,18.67 15.234,18.67 14.959,19.084 14.948,19.595 V 19.595 C 14.947,19.612 14.947,19.629 14.947,19.645 14.745,19.552 14.545,19.484 14.35,19.443 14.349,19.423 14.348,19.404 14.348,19.385 V 19.384 C 14.329,18.453 14.901,17.681 15.625,17.662 16.349,17.642 16.951,18.381 16.97,19.313 V 19.314 C 16.979,19.735 16.866,20.123 16.673,20.424 Z"/>
</svg>
